assets/icons/product-newuser.svg

<svg width="30" height="30" viewBox="0 0 30 30" fill="none" xmlns="http://www.w3.org/2000/svg">
<path fill-rule="evenodd" clip-rule="evenodd" d="M15.5051 13.0194C17.1075 12.0901 18.1852 10.3561 18.1852 8.37037C18.1852 5.4044 15.7808 3 12.8148 3C9.84884 3 7.44444 5.4044 7.44444 8.37037C7.44444 10.3561 8.52215 12.0901 10.1246 13.0194C9.50067 13.1851 8.88822 13.4087 8.29348 13.6887C6.86004 14.3634 5.55759 15.3523 4.46048 16.599C3.36337 17.8457 2.4931 19.3258 1.89935 20.9547C1.3056 22.5836 1 24.3295 1 26.0926H12.8148H24.6296C24.6296 24.3295 24.324 22.5836 23.7303 20.9547C23.1365 19.3258 22.2663 17.8457 21.1691 16.599C20.072 15.3523 18.7696 14.3634 17.3361 13.6887C16.7414 13.4087 16.129 13.1851 15.5051 13.0194Z" fill="url(#paint0_linear_1823_19378)"/>
<path d="M15.5051 13.0194L15.0034 12.1543C14.6535 12.3572 14.4603 12.7509 14.5139 13.1519C14.5675 13.5528 14.8573 13.8819 15.2482 13.9858L15.5051 13.0194ZM10.1246 13.0194L10.3814 13.9858C10.7723 13.8819 11.0622 13.5528 11.1158 13.1519C11.1694 12.7509 10.9761 12.3572 10.6262 12.1543L10.1246 13.0194ZM8.29348 13.6887L8.71936 14.5934H8.71936L8.29348 13.6887ZM4.46048 16.599L5.21119 17.2597L4.46048 16.599ZM1.89935 20.9547L0.959819 20.6122H0.959819L1.89935 20.9547ZM1 26.0926H0C0 26.6449 0.447715 27.0926 1 27.0926L1 26.0926ZM24.6296 26.0926V27.0926C25.1819 27.0926 25.6296 26.6449 25.6296 26.0926H24.6296ZM17.3361 13.6887L17.762 12.7839L17.3361 13.6887ZM17.1852 8.37037C17.1852 9.98507 16.31 11.3965 15.0034 12.1543L16.0067 13.8844C17.9049 12.7836 19.1852 10.7271 19.1852 8.37037H17.1852ZM12.8148 4C15.2285 4 17.1852 5.95668 17.1852 8.37037H19.1852C19.1852 4.85211 16.3331 2 12.8148 2V4ZM8.44444 8.37037C8.44444 5.95668 10.4011 4 12.8148 4V2C9.29656 2 6.44444 4.85211 6.44444 8.37037H8.44444ZM10.6262 12.1543C9.31959 11.3965 8.44444 9.98507 8.44444 8.37037H6.44444C6.44444 10.7271 7.72471 12.7836 9.6229 13.8844L10.6262 12.1543ZM9.86775 12.0529C9.18511 12.2343 8.51612 12.4786 7.8676 12.7839L8.71936 14.5934C9.26032 14.3388 9.81622 14.136 10.3814 13.9858L9.86775 12.0529ZM7.8676 12.7839C6.30437 13.5197 4.89285 14.594 3.70976 15.9384L5.21119 17.2597C6.22232 16.1107 7.41572 15.2071 8.71936 14.5934L7.8676 12.7839ZM3.70976 15.9384C2.52689 17.2826 1.59427 18.8717 0.959819 20.6122L2.83888 21.2972C3.39193 19.7799 4.19986 18.4089 5.21119 17.2597L3.70976 15.9384ZM0.959819 20.6122C0.32538 22.3528 0 24.2147 0 26.0926H2C2 24.4443 2.28582 22.8145 2.83888 21.2972L0.959819 20.6122ZM1 27.0926H12.8148V25.0926H1V27.0926ZM12.8148 27.0926H24.6296V25.0926H12.8148V27.0926ZM25.6296 26.0926C25.6296 24.2147 25.3042 22.3528 24.6698 20.6122L22.7908 21.2972C23.3438 22.8145 23.6296 24.4443 23.6296 26.0926H25.6296ZM24.6698 20.6122C24.0354 18.8717 23.1027 17.2826 21.9199 15.9384L20.4184 17.2597C21.4298 18.4089 22.2377 19.7799 22.7908 21.2972L24.6698 20.6122ZM21.9199 15.9384C20.7368 14.594 19.3253 13.5197 17.762 12.7839L16.9103 14.5934C18.2139 15.2071 19.4073 16.1107 20.4184 17.2597L21.9199 15.9384ZM17.762 12.7839C17.1135 12.4786 16.4445 12.2343 15.7619 12.0529L15.2482 13.9858C15.8134 14.136 16.3693 14.3388 16.9103 14.5934L17.762 12.7839Z" fill="white"/>
<circle cx="23.5556" cy="22.3331" r="6.44444" fill="#3971F3"/>
<path d="M20.3333 22.3335H26.7778" stroke="white" stroke-linecap="round"/>
<path d="M23.5556 19.1113L23.5556 25.5558" stroke="white" stroke-linecap="round"/>
<defs>
<linearGradient id="paint0_linear_1823_19378" x1="8.38426" y1="19.3573" x2="18.5078" y2="9.98484" gradientUnits="userSpaceOnUse">
<stop stop-color="white"/>
<stop offset="1" stop-color="#D1E9FF"/>
</linearGradient>
</defs>
</svg>

<svg xmlns="http://www.w3.org/2000/svg" width="30" height="30" fill="none" data-c="1"><path fill="url(#a)" fill-rule="evenodd" d="M15.505 13.02a5.37 5.37 0 1 0-5.38 0q-.938.248-1.832.669a11.8 11.8 0 0 0-3.833 2.91 13.7 13.7 0 0 0-2.56 4.356 15 15 0 0 0-.9 5.138h23.63c0-1.764-.306-3.51-.9-5.138a13.7 13.7 0 0 0-2.56-4.356 11.8 11.8 0 0 0-3.834-2.91 11 11 0 0 0-1.83-.67" clip-rule="evenodd"/><path fill="#fff" d="m15.505 13.02-.502-.866a1 1 0 0 0 .245 1.832zm-5.38 0 .256.966a1 1 0 0 0 .245-1.832zm-1.832.669.426.904zm-3.833 2.91.751.66zM1.9 20.955l-.94-.343zM1 26.093H0a1 1 0 0 0 1 1zm23.63 0v1a1 1 0 0 0 1-1zm-7.294-12.404.426-.905zm-.15-5.319a4.37 4.37 0 0 1-2.183 3.784l1.004 1.73a6.37 6.37 0 0 0 3.178-5.514zM12.814 4a4.37 4.37 0 0 1 4.37 4.37h2A6.37 6.37 0 0 0 12.815 2zm-4.37 4.37A4.37 4.37 0 0 1 12.814 4V2a6.37 6.37 0 0 0-6.37 6.37zm2.181 3.784A4.37 4.37 0 0 1 8.444 8.37h-2a6.37 6.37 0 0 0 3.179 5.514zm-.758-.101q-1.026.273-2 .73l.851 1.81a10 10 0 0 1 1.662-.607zm-2 .73a12.8 12.8 0 0 0-4.158 3.155L5.21 17.26a10.8 10.8 0 0 1 3.508-2.667zM3.71 15.939a14.7 14.7 0 0 0-2.75 4.674l1.879.685A12.7 12.7 0 0 1 5.21 17.26zM.96 20.612a16 16 0 0 0-.96 5.48h2c0-1.648.286-3.277.839-4.795zm.04 6.48h11.815v-2H1zm11.815 0H24.63v-2H12.815zm12.815-1c0-1.877-.326-3.74-.96-5.48l-1.88.685c.554 1.517.84 3.147.84 4.796zm-.96-5.48a14.7 14.7 0 0 0-2.75-4.674l-1.502 1.322a12.7 12.7 0 0 1 2.373 4.037zm-2.75-4.674a12.8 12.8 0 0 0-4.158-3.154l-.852 1.81a10.8 10.8 0 0 1 3.508 2.666zm-4.158-3.154a12 12 0 0 0-2-.731l-.514 1.933q.849.226 1.662.607z"/><circle cx="23.556" cy="22.333" r="6.444" fill="#3971F3"/><path stroke="#fff" stroke-linecap="round" d="M20.333 22.334h6.445M23.556 19.111v6.445"/><defs><linearGradient id="a" x1="8.384" x2="18.508" y1="19.357" y2="9.985" gradientUnits="userSpaceOnUse"><stop stop-color="#fff"/><stop offset="1" stop-color="#D1E9FF"/></linearGradient></defs></svg>
